img/paper-curved-icon.svg

<svg width="42" height="42" viewBox="0 0 42 42" fill="none" xmlns="http://www.w3.org/2000/svg">
<path fill-rule="evenodd" clip-rule="evenodd" d="M5.1499 7.37331V29.392L5.14995 29.395C5.21024 31.3853 6.04017 33.2745 7.46504 34.665C8.8899 36.0555 10.7991 36.8388 12.7897 36.8499H28.5127C30.9886 36.8574 33.3665 35.8832 35.1259 34.1408C36.8852 32.3984 37.8827 30.029 37.8999 27.5525C37.8999 27.4551 37.8806 27.3587 37.843 27.2689C37.8054 27.1791 37.7504 27.0976 37.681 27.0293C37.6117 26.9609 37.5295 26.907 37.4391 26.8707C37.349 26.8345 37.2526 26.8166 37.1555 26.8179H29.1647V8.24706C29.1647 7.70249 29.0575 7.16325 28.8492 6.66013C28.6408 6.15701 28.3354 5.69986 27.9505 5.31479C27.5655 4.92972 27.1085 4.62426 26.6055 4.41585C26.1025 4.20745 25.5634 4.10019 25.019 4.10019H8.4687C8.03558 4.09525 7.60577 4.17614 7.20406 4.33818C6.80217 4.5003 6.43636 4.74043 6.12774 5.04472C5.81913 5.349 5.57383 5.71142 5.406 6.11104C5.23817 6.51066 5.15113 6.93986 5.1499 7.37331ZM28.5131 36.7499H12.7898C10.8251 36.7389 8.94131 35.9658 7.53498 34.5934C6.12865 33.221 5.30951 31.3563 5.25 29.392V7.37328C5.25119 6.95304 5.33557 6.53719 5.4983 6.14974C5.66102 5.76229 5.89884 5.41091 6.19805 5.1159C6.49726 4.82088 6.85192 4.58807 7.24157 4.4309C7.37701 4.37626 7.51575 4.33114 7.65678 4.29573C7.51572 4.33115 7.37695 4.37627 7.24147 4.43092C6.85182 4.5881 6.49716 4.82091 6.19795 5.11592C5.89875 5.41094 5.66092 5.76231 5.4982 6.14976C5.33548 6.53721 5.25109 6.95306 5.2499 7.37331V29.392C5.30941 31.3564 6.12855 33.221 7.53488 34.5934C8.94121 35.9658 10.825 36.7389 12.7897 36.7499H28.513C28.5131 36.7499 28.5131 36.7499 28.5131 36.7499ZM20.9917 27.994L20.9917 27.9939L36.8345 28.0215L36.4575 29.5115C36.0054 31.2737 34.9786 32.8348 33.5397 33.9476C32.8202 34.504 32.0182 34.9324 31.1688 35.2211C32.0182 34.9324 32.8202 34.504 33.5396 33.9476C34.9785 32.8348 36.0053 31.2738 36.4574 29.5115L36.8344 28.0216L20.9917 27.994ZM28.513 35.5554H17.7892L19.2212 33.7776C20.2927 32.4523 20.9211 30.8235 21.0179 29.1217L21.0852 28.0941L36.706 28.1213L36.3606 29.4867C35.914 31.2274 34.8997 32.7693 33.4784 33.8685C32.0571 34.9677 30.3096 35.5613 28.513 35.5554ZM6.45329 7.37331C6.45329 6.85097 6.66073 6.35004 7.02997 5.9807C7.3992 5.61137 7.89998 5.40388 8.42215 5.40388H25.0188C25.772 5.40627 26.4936 5.70659 27.0261 6.2393C27.5587 6.77205 27.859 7.49394 27.8613 8.24737V26.8179H20.4675C20.371 26.8179 20.2755 26.8369 20.1864 26.8738C20.0973 26.9107 20.0163 26.9648 19.9481 27.033C19.8799 27.1013 19.8258 27.1822 19.7889 27.2714C19.752 27.3605 19.733 27.456 19.733 27.5525V28.6101C19.7306 30.4514 18.9983 32.2166 17.6967 33.5185C16.3951 34.8205 14.6304 35.553 12.7896 35.5554C11.1091 35.5554 9.49749 34.8876 8.3092 33.699C7.12089 32.5104 6.45329 30.8982 6.45329 29.2172V7.37331ZM27.0969 6.1686C27.6481 6.72003 27.9589 7.46723 27.9613 8.24706V26.9178H27.9614V8.24704C27.959 7.4672 27.6482 6.72 27.097 6.16857C26.5457 5.61715 25.7987 5.30628 25.0191 5.30386H8.42225C8.25183 5.30386 8.08359 5.32489 7.92098 5.36551C8.08356 5.3249 8.25177 5.30388 8.42215 5.30388H25.019C25.7986 5.30631 26.5456 5.61717 27.0969 6.1686ZM13.5325 35.6153C14.2067 35.543 14.8636 35.3741 15.4837 35.1167Z" fill="#F58020"/>
<path fill-rule="evenodd" clip-rule="evenodd" d="M33.4688 5.65002C33.8278 5.65002 34.1188 5.94104 34.1188 6.30002V14.4199C34.1188 14.7789 33.8278 15.0699 33.4688 15.0699C33.1099 15.0699 32.8188 14.7789 32.8188 14.4199V6.30002C32.8188 5.94104 33.1099 5.65002 33.4688 5.65002Z" fill="#F58020"/>
<path fill-rule="evenodd" clip-rule="evenodd" d="M32.8184 20.25C32.8184 19.891 33.1094 19.6 33.4684 19.6H33.4867C33.8457 19.6 34.1367 19.891 34.1367 20.25C34.1367 20.609 33.8457 20.9 33.4867 20.9H33.4684C33.1094 20.9 32.8184 20.609 32.8184 20.25Z" fill="#F58020"/>
</svg>

<svg width="42" height="42" fill="none" xmlns="http://www.w3.org/2000/svg"><path fill-rule="evenodd" clip-rule="evenodd" d="M5.15 7.373v22.022a7.689 7.689 0 0 0 7.64 7.455h15.723a9.358 9.358 0 0 0 9.387-9.298.734.734 0 0 0-.744-.734h-7.991V8.248A4.149 4.149 0 0 0 25.019 4.1H8.469a3.28 3.28 0 0 0-3.32 3.273zM28.513 36.75H12.79a7.585 7.585 0 0 1-7.54-7.358V7.373v22.019a7.589 7.589 0 0 0 7.54 7.358h15.723zm-7.521-8.756l15.842.027-.377 1.49.377-1.49-15.842-.027zm7.521 7.561H17.789l1.432-1.777a8.141 8.141 0 0 0 1.797-4.656l.067-1.028 15.621.027-.345 1.366a8.077 8.077 0 0 1-7.848 6.068zM6.453 7.373a1.97 1.97 0 0 1 1.97-1.97h16.596a2.85 2.85 0 0 1 2.842 2.844v18.57h-7.393a.735.735 0 0 0-.735.735v1.058a6.955 6.955 0 0 1-6.943 6.945 6.335 6.335 0 0 1-6.337-6.338V7.373zM27.097 6.17a2.95 2.95 0 0 1 .864 2.078v18.67-18.67a2.953 2.953 0 0 0-2.942-2.943H8.422 25.02c.78.002 1.527.313 2.078.865zM13.532 35.615a7.05 7.05 0 0 0 1.952-.498zM33.469 5.65a.65.65 0 0 1 .65.65v8.12a.65.65 0 1 1-1.3 0V6.3a.65.65 0 0 1 .65-.65z" fill="#F58020"/><path fill-rule="evenodd" clip-rule="evenodd" d="M32.818 20.25a.65.65 0 0 1 .65-.65h.019a.65.65 0 1 1 0 1.3h-.019a.65.65 0 0 1-.65-.65z" fill="#F58020"/></svg>
